X:1
T:O Hallelujah, Praise His Holy Name
T:Max Rapp, 1921
T:O Hallelujah, Praise His Holy Name
T:Public Domain
T:Public Domain
C:Max Rapp, 1921
Z:Public Domain
%%score ( 1 2 ) ( 3 4 )
L:1/8
M:4/4
K:Ab
V:1 treble 
V:2 treble 
V:3 bass 
V:4 bass 
V:1
 EE | [CA][CA][CA][CA] [DG]2 [DB]>[DB] | [CA]4 [CE]2 [CE][CE] | [DF][D=E][DF][_EG] [FA]2 [DF]2 | %4
w: 1.~There’s a|that’s been told, Hal- le- lu- jah!|Of a Sav- ior|and His pre- cious love; How|
w: 2.~There’s a|in my heart, Hal- le- lu- jah!|I’m so glad that|He has made me whole; I|
w: 3.~There’s a|in the air, Hal- le- lu- jah!|All the an- gels|sing it in the sky; “Just|
 [CE]6 [CE][CA] | [DB][DB][C=A][Ec] [EB]2 E>E | [Ec]4 [CA]2 [Ec][Ec] | %7
w: He died to|make us free, Hal- le- lu- jah!|all might go and|
w: am saved, and|by His grace, Hal- le- lu- jah!|al- ways keep His|
w: re- pent and|He’ll for- give,” Hal- le- lu- jah!|soul to Him for|
 [EB][EB][Ee][Ec] [EB][EG] [=DF]>[DF] | E6 z2 ||"^Refrain" [Ge] [Ge]2 [A=d] [E_d][EG][Ec][EB] | %10
w: live with Him a- bove. * * *|||
w: love with- in my soul. O Hal- le-|lu-|Praise His ho- ly name and let|
w: re- fuge then will fly. * * *|||
 [EA]2 [Ec]2 [CE]2 z [Ec] | [EB]3 [GB] [Ac]2 [A=d]2 | (GABA G2) E[DE] | [CA][CA][CA][CA] [DG]2 EE | %14
w: ||||
w: our voic- es ring;|There are man- sions|up * * * * a- bove,|pared for those who love And sing|
w: ||||
 [EA][EB][Ec][Ed] [Ae]2 [Af]2 | [Ae] [Ae]2 [Ad] [Ac]2 (GE) | [EA]6 |] %17
w: |||
w: Sav- ior king. * * *|||
w: |||
V:2
 EE | x8 | x8 | x8 | x8 | x6 E>E | x8 | x8 | E6 x2 || x8 | x8 | x8 | e6 E x | x6 EE | x8 | x6 B2 | %16
w: sto- ry|||||That we|||||||||||
w: song that’s|||||I will|||jah!||||All pre-|of their|||
w: song that’s|||||And your|||||||||||
 x6 |] %17
w: |
w: |
w: |
V:3
 E,E, | [A,,E,][A,,E,][A,,E,][A,,E,] [B,,E,]2 [E,G,]>[E,G,] | [A,,A,]4 [A,,A,]2 [A,,A,][A,,A,] | %3
w: ~ ~|~ ~ ~ ~ ~ ~ ~|~ ~ ~ ~|
 [D,A,][D,G,][D,A,][D,A,] [D,D]2 [D,A,]2 | [A,,A,]6 [A,,A,][A,,A,] | %5
w: ~ ~ ~ ~ ~ ~|~ ~ ~|
 [E,G,][E,G,][E,^F,][E,F,] [E,G,]2 [E,G,]>[E,G,] | [A,,A,]4 [E,,E,]2 [G,,E,][G,,E,] | %7
w: ~ ~ ~ ~ ~ ~ ~|~ ~ ~ ~|
 [B,,G,][B,,G,][G,,B,][A,,A,] [B,,G,][B,,B,] [B,,B,]>[B,,A,] | [E,G,]6 z2 || %9
w: ~ ~ ~ ~ ~ ~ ~ ~|~|
 [E,B,] [E,B,]2 [F,B,] [G,B,][E,B,][F,D][G,D] | [A,C]2 A,2 [A,,A,]2 z [A,,A,] | %11
w: ~ ~ ~ ~ ~ ~ ~|~ ~ ~ ~|
 [B,,G,]3 [B,,E] [B,,=D]2 [B,,B,]2 | E,F,G,F, (E,D,)[C,A,][B,,G,] | %13
w: ~ Let our voic-|es ring; * * * * * *|
 [A,,A,][A,,E,][A,,E,][A,,E,] [B,,E,]2 [E,G,][D,G,] | [C,A,][E,G,]A,[A,B,] [A,C]2 [A,D]2 | %15
w: ||
 [A,C] [C,E]2 [D,F] [E,E]2 [E,D]2 | [A,,A,C]6 |] %17
w: ||
V:4
 E,E, | x8 | x8 | x8 | x8 | x8 | x8 | x8 | x8 || x8 | x2 A,2 x4 | x8 | B,6 x2 | x8 | x2 A, x5 | %15
w: ~ ~||||||||||~|||||
 x8 | x6 |] %17
w: ||

